packages/icon/src/svg/list.icon.svg

<svg viewBox="0 0 24 24" xmlns="http://www.w3.org/2000/svg"><path d="M7 2c.553 0 1 .448 1 1v4c0 .553-.447 1-1 1H3c-.552 0-1-.447-1-1V3c0-.552.448-1 1-1h4zM6 6V4H4v2h2zm1 3c.553 0 1 .448 1 1v4c0 .553-.447 1-1 1H3c-.552 0-1-.447-1-1v-4c0-.552.448-1 1-1h4zm-1 4v-2H4v2h2zm1 3c.553 0 1 .448 1 1v4c0 .553-.447 1-1 1H3c-.552 0-1-.447-1-1v-4c0-.552.448-1 1-1h4zm-1 4v-2H4v2h2zm4-16h12v2H10V4zm0 7h12v2H10v-2zm0 7h12v2H10v-2z" /></svg>

<?xml version="1.0" encoding="UTF-8"?>
<svg width="24px" height="24px" viewBox="0 0 24 24" version="1.1" xmlns="http://www.w3.org/2000/svg" xmlns:xlink="http://www.w3.org/1999/xlink">
    <!-- Generator: Sketch 46.1 (44463) - http://www.bohemiancoding.com/sketch -->
    <title>Icon/list.icon</title>
    <desc>Created with Sketch.</desc>
    <defs>
        <path d="M7,2 C7.553,2 8,2.448 8,3 L8,7 C8,7.553 7.553,8 7,8 L3,8 C2.448,8 2,7.553 2,7 L2,3 C2,2.448 2.448,2 3,2 L7,2 Z M6,6 L6,4 L4,4 L4,6 L6,6 Z M7,9 C7.553,9 8,9.448 8,10 L8,14 C8,14.553 7.553,15 7,15 L3,15 C2.448,15 2,14.553 2,14 L2,10 C2,9.448 2.448,9 3,9 L7,9 Z M6,13 L6,11 L4,11 L4,13 L6,13 Z M7,16 C7.553,16 8,16.448 8,17 L8,21 C8,21.553 7.553,22 7,22 L3,22 C2.448,22 2,21.553 2,21 L2,17 C2,16.448 2.448,16 3,16 L7,16 Z M6,20 L6,18 L4,18 L4,20 L6,20 Z M10,4 L22,4 L22,6 L10,6 L10,4 Z M10,11 L22,11 L22,13 L10,13 L10,11 Z M10,18 L22,18 L22,20 L10,20 L10,18 Z" id="path-1"></path>
    </defs>
    <g id="Symbols" stroke="none" stroke-width="1" fill="none" fill-rule="evenodd">
        <g id="Icon/list">
            <mask id="mask-2" fill="white">
                <use xlink:href="#path-1"></use>
            </mask>
            <use id="Combined-Shape" fill="#000000" fill-rule="nonzero" xlink:href="#path-1"></use>
            <g id="Color/Neutral/White" mask="url(#mask-2)" fill="#FFFFFF">
                <rect id="222222-Fill" x="0" y="0" width="24" height="24"></rect>
            </g>
        </g>
    </g>
</svg>
